X: 24006
T: Log Drivers
R: slide
M: 12/8
K: Gmajor
B,C^C|:"G"D2B G2E "G"D2^C D2^D|"C"E2c A2c "C"E2E AG_G|
"D"F2c E2c "D"D2D DEF|1 "G"GBA GFE "G"D2D B,C^C:|2 "G"G2 z D2 z "G"G2 z d^cd||
|:"G"e2d B2G "G"D2G F2G|"C"A2G F2G "C"E2E A2G|
"D"F2c E2c "D"D2D DEF|1 "G"GBA GFE "G"D2 z d^cd:|2 "G"G2 z D2 z "G"G2||

